assets/gtk/mono.svg

<svg viewBox="0 0 24 24" xmlns="http://www.w3.org/2000/svg"><path d="m9.01 23.773v-9.323l-7.584 2.245zm0-13.87-8.1-6.075.502 12.526 7.597-2.249zm.56 14.097 12.353-5.146-8.285-5.775-4.068 1.204zm13.52-18.185-9.257 2.849v4.148l8.237 5.741zm-13.52 4.16v3.964l3.932-1.164v-4.01zm-.228-.52 4.16-1.28v-8.175l-12.271 3.37zm13.373-4.115-8.882-5.288v8.021z"/></svg>

<svg xmlns="http://www.w3.org/2000/svg" viewBox="0 0 24 24"><path d="M9.01 23.773V14.45l-7.584 2.245zm0-13.87L.91 3.828l.502 12.526 7.597-2.249zM9.57 24l12.353-5.146-8.285-5.775-4.068 1.204zM23.09 5.815l-9.257 2.849v4.148l8.237 5.741zM9.57 9.975v3.964l3.932-1.164v-4.01zm-.228-.52 4.16-1.28V0L1.231 3.37zM22.715 5.34 13.833.052v8.021z"/></svg>
